docs/landing/src/assets/techs/typecho.svg

<svg fill="none" height="65" viewBox="0 0 66 65" width="66" xmlns="http://www.w3.org/2000/svg"><path clip-rule="evenodd" d="m33.5 59c-19.6338 0-26.5-6.8676-26.5-26.5 0-19.6331 6.8662-26.5 26.5-26.5s26.5 6.8669 26.5 26.5c0 19.6324-6.8662 26.5-26.5 26.5zm-14.2692-34.6538h28.5384v-4.077h-28.5384zm0 10.1923h20.3846v-4.077h-20.3846zm0 10.1923h24.4615v-4.077h-24.4615z" fill="#000" fill-rule="evenodd"/></svg>

<svg width="66" height="65" viewBox="0 0 66 65" fill="none" xmlns="http://www.w3.org/2000/svg">
<path fill-rule="evenodd" clip-rule="evenodd" d="M33.5 59C13.8662 59 7 52.1324 7 32.5C7 12.8669 13.8662 6 33.5 6C53.1338 6 60 12.8669 60 32.5C60 52.1324 53.1338 59 33.5 59ZM19.2308 24.3462H47.7692V20.2692H19.2308V24.3462ZM19.2308 34.5385H39.6154V30.4615H19.2308V34.5385ZM19.2308 44.7308H43.6923V40.6538H19.2308V44.7308Z" fill="black"/>
</svg>
